Origami/64x64/apps/minitube.svg

<svg width="64" height="64" version="1" xmlns="http://www.w3.org/2000/svg">
 <path d="m4 50v2c0 1.662 1.338 3 3 3h50c1.662 0 3-1.338 3-3v-2c0 1.662-1.338 3-3 3h-50c-1.662 0-3-1.338-3-3z" style="opacity:.2"/>
 <rect transform="matrix(0,-1,-1,0,0,0)" x="-54" y="-60" width="44" height="56" rx="3" ry="3" style="fill:#dd4545"/>
 <path d="m7 10c-1.662 0-3 1.338-3 3v1c0-1.662 1.338-3 3-3h50c1.662 0 3 1.338 3 3v-1c0-1.662-1.338-3-3-3h-50z" style="fill:#ffffff;opacity:.1"/>
 <path d="m48 32c0-16.6154-6.666-18-20-18-13.3334 0-20 1.3846-20 18 0 16.616 6.6666 18 20 18 13.334 0 20-1.384 20-18z" style="fill:#323232"/>
 <path d="m50 40v2h8v-2h-8z" style="fill:#323232"/>
 <path d="m50 44v2h8v-2h-8z" style="fill:#323232"/>
 <path d="m50 48v2h8v-2h-8z" style="fill:#323232"/>
 <g transform="matrix(2,0,0,2,0,1.000499)" style="opacity:.2">
  <circle cx="27" cy="11" r="2"/>
  <circle cx="27" cy="16" r="2"/>
 </g>
 <circle cx="54" cy="22" r="4" style="fill:#c7c7c7"/>
 <circle cx="54" cy="32" r="4" style="fill:#c7c7c7"/>
 <path d="m37.999846 33.000095-7.999972 4.999953-7.999972 4.999952v-19.999462l7.999972 4.999952z" style="opacity:.2"/>
 <path d="m37.999846 31.999596-7.999972 4.999953-7.999972 4.999952v-19.999462l7.999972 4.999952z" style="fill:#c7c7c7"/>
</svg>

<svg xmlns="http://www.w3.org/2000/svg" width="64" height="64" version="1">
 <path style="opacity:0.2" d="m 4,50 0,2 c 0,1.662 1.338,3 3,3 l 50,0 c 1.662,0 3,-1.338 3,-3 l 0,-2 c 0,1.662 -1.338,3 -3,3 L 7,53 C 5.338,53 4,51.662 4,50 Z"/>
 <rect style="fill:#dd4545" width="44" height="56" x="-54" y="-60" rx="3" ry="3" transform="matrix(0,-1,-1,0,0,0)"/>
 <path style="opacity:0.1;fill:#ffffff" d="M 7 10 C 5.338 10 4 11.338 4 13 L 4 14 C 4 12.338 5.338 11 7 11 L 57 11 C 58.662 11 60 12.338 60 14 L 60 13 C 60 11.338 58.662 10 57 10 L 7 10 z"/>
 <path style="fill:#323232" d="M 48,32 C 48,15.3846 41.334,14 28,14 14.6666,14 8,15.3846 8,32 8,48.616 14.6666,50 28,50 41.334,50 48,48.616 48,32 Z"/>
 <path style="fill:#323232" d="m 50,40 0,2 8,0 0,-2 -8,0 z"/>
 <path style="fill:#323232" d="m 50,44 0,2 8,0 0,-2 -8,0 z"/>
 <path style="fill:#323232" d="m 50,48 0,2 8,0 0,-2 -8,0 z"/>
 <g style="opacity:0.2" transform="matrix(2,0,0,2,0,1.000499)">
  <circle cx="27" cy="11" r="2"/>
  <circle cx="27" cy="16" r="2"/>
 </g>
 <circle style="fill:#c7c7c7" cx="54" cy="22" r="4"/>
 <circle style="fill:#c7c7c7" cx="54" cy="32" r="4"/>
 <path style="opacity:0.2" d="M 37.999846,33.000095 29.999874,38.000048 21.999902,43 l 0,-19.999462 7.999972,4.999952 z"/>
 <path style="fill:#c7c7c7" d="m 37.999846,31.999596 -7.999972,4.999953 -7.999972,4.999952 0,-19.999462 7.999972,4.999952 z"/>
</svg>
